!!!id: BC113
!!!page: 140
!!!COM: Georges, Raoul
!!!LYR: Favard, E.
!!!PTL@@FR: Les 100 plus belles chansons
!!!OTL@@FR: Nos souvenirs
!!!PUB: La Bonne Chanson, inc.
!!!YEM: On ne peut reproduire, enregistrer ou diffuser en tout ou en partie le présent ouvrage, sous quelque procédé que ce soit, électronique, mécanique, photographique, sonore, magnétique ou autre, sans avoir obtenu au préalable l'autorisation écrite de l'éditrice.
!!!PDT: 2011
!!!SMA: 2012 Bibliothèque nationale du Québec; Biblothèque nationale du Canada
!!!AGN-Laforte: strophique
!!!AGN-refrain: none
!!!AGN-metre: 4:8(8)
!!!AGN-type: [hymne national]
!!!AGN-rime: suivies (aabbccdd)
**kern	**text	**text	**text	**text
*clefG2	*	*	*	*
*k[]	*	*	*	*
*C:	*	*	*	*
*M3/4	*	*	*	*
*	*v:1	*v:2	*v:3	*v:4
*	*pline:1	*pline:7(1a4)	*pline:13(1a6)	*pline:19(1a6)
8g	Les	Les	Les	Les
=1	=1	=1	=1	=1
8g	sou-	sou-	sou-	sou-
8a	-ve-	-ve-	-ve-	-ve-
8a	-nirs	-nirs	-nirs	-nirs
8g	de	des	de	de
8g	nos	jours	nos	nos
8cc	vingt	heu-	sou-	a-
=2	=2	=2	=2	=2
[2cc	ans	-reux	-cis	-mours
4cc]	.	.	.	.
*	*pline:2	*pline:8(2a7)	*pline:14(2a2b6-8)	*pline:20
8b	Sont	Sont	Sont	Sont
!!LO:PB:g=original
=3	=3	=3	=3	=3
8b	de	de	de	des
8a	jo-	jo-	vi-	pa-
8a	-lis	-lis	-lains	-pil-
8g	pa-	pa-	pa-	-lons
8g	-pil-	-pil-	-pil-	de
8b	-lons	-lons	-lons	ve-
=4	=4	=4	=4	=4
[2b/	blancs	bleus;	gris;	-lours
8b]/	.	.	.	.
*	*pline:3	*pline:9	*pline:15	*pline:21
8f	Qui	No-	On	Qui
=5	=5	=5	=5	=5
8f	nous	-tre	a	par
8g	ap-	cer-	beau	u-
8g	-por-	-veau	leur	-ne
8a	-tent	les	don-	tac-
8a	sur	ac-	-ner	-tiqu[e]
8b	leurs	-ca-	la	ha-
!!LO:PB:g=original
=6	=6	=6	=6	=6
4b	ai-	-pa-	chas-	-bi-
4b	-les	-re,	-se,	-le
8r	.	.	.	.
*	*pline:4	*pline:10	*pline:16	*pline:22
8b	Du	Car	À	En
=7	=7	=7	=7	=7
8b	pas-	ils	nous	nous
8a	-sé,	sont	pei-	ont
8a	de	in-	-ner,	é-
8g	ten-	-fi-	ils	-lu
8g	-dres	-ni-	sont	do-
8a	nou-	-ment	te-	-mi-
!!LO:PB:g=original
=8	=8	=8	=8	=8
4a	-vel-	ra-	-na-	-ci-
4g	-les!	-res.	-ces.	-le;
8r	.	.	.	.
*	*pline:5	*pline:11	*pline:17	*pline:23
8g	Ils	A-	Mais	On
=9	=9	=9	=9	=9
8g	re-	-près	dès	les
8a	-par-	un	qu'ar-	a-
8a	-tent,	o-	-ri-	dor[e]
8g	vont	-rag[e],	-vent	à
8g	fair[e]	un	les	l'in-
8cc	un	mal-	beaux	-fi-
=10	=10	=10	=10	=10
[2cc	tour,	-heur!	jours	-ni:
8cc]	.	.	.	.
*	*pline:6	*pline:12	*pline:18	*pline:24
8cc	Mais	Ils	Ils	Dans
!!LO:PB:g=original
=11	=11	=11	=11	=11
8cc	ils	vien-	dis-	no-
8b-	nous	-nent	-pa-	-tre
!	!	!missing elision	!	!
8b-	re-	é-	-res-	coeur
8a	-vien-	-gay-	-sent	ils
8a	-nent	-er	pour	ont
8ee	tou-	nos	tou-	leur
=12	=12	=12	=12	=12
[2dd	-jours,	coeurs.	-jours.	nid.
8dd]	.	.	.	.
*	*pline:1r	*pline:7(1a4)r	*pline:13(1a6)r	*pline:19(1a6)r
8cc	Les	Les	Les	Les
=13	=13	=13	=13	=13
8cc	sou-	sou-	sou-	sou-
8a-	-ve-	-ve-	-ve-	-ve-
8a-	-nirs	-nirs	-nirs	-nirs
8cc	de	des	de	de
8cc	nos	jours	nos	nos
8g	vingt	heu-	sou-	a-
!!LO:PB:g=original
=14	=14	=14	=14	=14
[2g	ans	-reux	-cis	-mours
8g]	.	.	.	.
*	*pline:2r	*pline:8(2a7)r	*pline:14(a2b6-8)	*pline:20r
8g	Sont	Sont	Sont	Sont
=15	=15	=15	=15	=15
8g	de	de	de	des
8a	jo-	jo-	vi-	pa-
8a	-lis	-lis	-lains	-pil-
8b	pa-	pa-	pa-	-lons
8b	-pil-	-pil-	-pil-	de
8ee	-lons	-lons	-lons	ve-
=16	=16	=16	=16	=16
2cc	blancs.	bleus.	gris.	-lours.
8r	.	.	.	.
==	==	==	==	==
*-	*-	*-	*-	*-
!!!EED-1: Junny Chen
!!!EEV-1: 2026/04/09
!!!EED-2; Ève Poudrier
!!!EEV-2: 2026/04/17
!!!EED-2: Ève Poudrier
!!!EEV-2: 2026/04/17
